flaticon/productivity-and-development/certification.svg

<svg xmlns="http://www.w3.org/2000/svg" width="32" height="32" viewBox="0 0 24 24">
    <path d="M15.175781 6.414062C15.523438 6.414062 15.804688 6.132812 15.804688 5.785156 15.804688 5.4375 15.523438 5.15625 15.175781 5.15625 14.828125 5.15625 14.546875 5.4375 14.546875 5.785156 14.546875 6.132812 14.828125 6.414062 15.175781 6.414062zM15.175781 5.5625C15.277344 5.5625 15.363281 5.660156 15.363281 5.785156 15.363281 5.910156 15.277344 6.007812 15.175781 6.007812 15.074219 6.007812 14.992188 5.910156 14.992188 5.785156 14.992188 5.660156 15.074219 5.5625 15.175781 5.5625zM16.9375 8.238281C17.285156 8.238281 17.566406 7.957031 17.566406 7.609375 17.566406 7.261719 17.285156 6.980469 16.9375 6.980469 16.589844 6.980469 16.308594 7.261719 16.308594 7.609375 16.308594 7.957031 16.589844 8.238281 16.9375 8.238281zM16.9375 7.386719C17.039062 7.386719 17.121094 7.484375 17.121094 7.609375 17.121094 7.734375 17.039062 7.835938 16.9375 7.835938 16.835938 7.835938 16.75 7.734375 16.75 7.609375 16.75 7.484375 16.835938 7.386719 16.9375 7.386719zM16.9375 7.386719"/>
    <path d="M 12 0 C 5.382812 0 0 5.382812 0 12 C 0 18.617188 5.382812 24 12 24 C 18.617188 24 24 18.617188 24 12 C 24 5.382812 18.617188 0 12 0 Z M 12 22.980469 C 5.945312 22.980469 1.019531 18.054688 1.019531 12 C 1.019531 5.945312 5.945312 1.019531 12 1.019531 C 18.054688 1.019531 22.980469 5.945312 22.980469 12 C 22.980469 18.054688 18.054688 22.980469 12 22.980469 Z M 12 22.980469"/>
    <path d="M6.996094 8.203125L7.667969 8.203125 7.667969 5.082031 6.402344 5.082031 6.402344 5.675781 6.996094 5.675781zM9.605469 8.238281C10.039062 8.238281 10.363281 8.09375 10.578125 7.800781 10.789062 7.507812 10.898438 7.113281 10.898438 6.625 10.898438 6.136719 10.789062 5.742188 10.578125 5.449219 10.363281 5.15625 10.039062 5.011719 9.605469 5.011719 9.175781 5.011719 8.851562 5.15625 8.636719 5.449219 8.421875 5.742188 8.316406 6.136719 8.316406 6.625 8.316406 7.113281 8.421875 7.507812 8.636719 7.800781 8.851562 8.09375 9.175781 8.238281 9.605469 8.238281zM9.144531 5.871094C9.246094 5.679688 9.398438 5.585938 9.605469 5.585938 9.816406 5.585938 9.96875 5.679688 10.066406 5.871094 10.164062 6.0625 10.214844 6.3125 10.214844 6.628906 10.214844 6.941406 10.164062 7.191406 10.066406 7.382812 9.96875 7.574219 9.816406 7.667969 9.605469 7.667969 9.398438 7.667969 9.246094 7.574219 9.144531 7.382812 9.046875 7.191406 9 6.941406 9 6.628906 9 6.3125 9.046875 6.0625 9.144531 5.871094zM12.691406 8.238281C13.121094 8.238281 13.445312 8.09375 13.660156 7.800781 13.875 7.507812 13.980469 7.113281 13.980469 6.625 13.980469 6.136719 13.875 5.742188 13.660156 5.449219 13.445312 5.15625 13.121094 5.011719 12.691406 5.011719 12.257812 5.011719 11.933594 5.15625 11.71875 5.449219 11.503906 5.742188 11.398438 6.136719 11.398438 6.625 11.398438 7.113281 11.503906 7.507812 11.71875 7.800781 11.933594 8.09375 12.257812 8.238281 12.691406 8.238281zM12.230469 5.871094C12.328125 5.679688 12.480469 5.585938 12.691406 5.585938 12.898438 5.585938 13.050781 5.679688 13.148438 5.871094 13.246094 6.0625 13.296875 6.3125 13.296875 6.628906 13.296875 6.941406 13.246094 7.191406 13.148438 7.382812 13.050781 7.574219 12.898438 7.667969 12.691406 7.667969 12.480469 7.667969 12.328125 7.574219 12.230469 7.382812 12.132812 7.191406 12.082031 6.941406 12.082031 6.628906 12.082031 6.3125 12.132812 6.0625 12.230469 5.871094zM15.3125 8.203125L14.542969 8.203125 16.789062 5.082031 17.550781 5.082031zM6.007812 12.316406C6.09375 12.328125 6.203125 12.335938 6.324219 12.335938 6.875 12.335938 7.347656 12.199219 7.667969 11.898438 7.910156 11.667969 8.046875 11.324219 8.046875 10.917969 8.046875 10.515625 7.867188 10.171875 7.605469 9.964844 7.328125 9.742188 6.917969 9.632812 6.34375 9.632812 5.773438 9.632812 5.371094 9.671875 5.082031 9.71875L5.082031 13.792969 6.007812 13.792969zM6.007812 10.375C6.074219 10.355469 6.203125 10.335938 6.390625 10.335938 6.859375 10.335938 7.121094 10.566406 7.121094 10.945312 7.121094 11.367188 6.816406 11.617188 6.320312 11.617188 6.183594 11.617188 6.085938 11.613281 6.007812 11.59375zM10.320312 13.113281C9.84375 13.113281 9.574219 12.75 9.574219 12.039062L9.574219 9.664062 8.636719 9.664062 8.636719 11.964844C8.636719 13.285156 9.25 13.859375 10.289062 13.859375 11.367188 13.859375 12.011719 13.253906 12.011719 11.980469L12.011719 9.664062 11.078125 9.664062 11.078125 12.039062C11.078125 12.769531 10.808594 13.113281 10.320312 13.113281zM14.695312 12.832031C14.816406 13.339844 14.914062 13.675781 14.984375 13.792969L15.9375 13.792969C15.859375 13.632812 15.730469 13.09375 15.601562 12.628906 15.496094 12.25 15.335938 11.972656 15.050781 11.855469L15.050781 11.839844C15.40625 11.710938 15.777344 11.347656 15.777344 10.820312 15.777344 10.441406 15.644531 10.152344 15.398438 9.957031 15.105469 9.726562 14.675781 9.632812 14.0625 9.632812 13.566406 9.632812 13.121094 9.671875 12.820312 9.71875L12.820312 13.792969 13.746094 13.792969 13.746094 12.167969 14.027344 12.167969C14.40625 12.175781 14.585938 12.316406 14.695312 12.832031zM13.746094 10.355469C13.8125 10.34375 13.941406 10.324219 14.167969 10.324219 14.597656 10.332031 14.855469 10.523438 14.855469 10.902344 14.855469 11.261719 14.578125 11.496094 14.113281 11.496094L13.746094 11.496094zM19.003906 10.429688L19.003906 9.664062 16.453125 9.664062 16.453125 13.792969 19.085938 13.792969 19.085938 13.027344 17.390625 13.027344 17.390625 12.046875 18.910156 12.046875 18.910156 11.285156 17.390625 11.285156 17.390625 10.429688zM6.71875 15.527344C6.527344 15.371094 6.242188 15.292969 5.839844 15.292969 5.441406 15.292969 5.160156 15.320312 4.960938 15.355469L4.960938 18.195312 5.605469 18.195312 5.605469 17.164062C5.664062 17.171875 5.742188 17.179688 5.824219 17.179688 6.210938 17.179688 6.539062 17.085938 6.761719 16.875 6.933594 16.710938 7.027344 16.472656 7.027344 16.191406 7.027344 15.910156 6.902344 15.671875 6.71875 15.527344zM5.820312 16.679688C5.726562 16.679688 5.660156 16.675781 5.605469 16.660156L5.605469 15.8125C5.652344 15.796875 5.742188 15.785156 5.871094 15.785156 6.199219 15.785156 6.382812 15.945312 6.382812 16.207031 6.382812 16.503906 6.167969 16.679688 5.820312 16.679688zM7.960938 16.492188L7.945312 16.492188 7.921875 16.105469 7.363281 16.105469C7.371094 16.285156 7.382812 16.484375 7.382812 16.792969L7.382812 18.195312 8.03125 18.195312C8.03125 18.195312 8.035156 17.03125 8.042969 16.988281 8.085938 16.789062 8.246094 16.660156 8.488281 16.660156 8.558594 16.660156 8.613281 16.667969 8.660156 16.679688L8.660156 16.066406C8.613281 16.058594 8.585938 16.058594 8.523438 16.058594 8.324219 16.058594 8.070312 16.1875 7.960938 16.492188zM9.964844 16.058594C9.292969 16.058594 8.851562 16.492188 8.851562 17.164062 8.851562 17.839844 9.320312 18.242188 9.929688 18.242188 10.488281 18.242188 11.03125 17.890625 11.03125 17.125 11.03125 16.5 10.605469 16.058594 9.964844 16.058594zM9.949219 17.777344C9.671875 17.777344 9.519531 17.507812 9.519531 17.148438 9.519531 16.839844 9.636719 16.519531 9.949219 16.519531 10.242188 16.519531 10.363281 16.835938 10.363281 17.148438 10.363281 17.523438 10.199219 17.777344 9.949219 17.777344zM13.46875 15.164062L12.820312 15.164062 12.820312 16.292969 12.8125 16.292969C12.71875 16.148438 12.519531 16.058594 12.261719 16.058594 11.761719 16.058594 11.324219 16.464844 11.328125 17.167969 11.328125 17.816406 11.722656 18.242188 12.21875 18.242188 12.488281 18.242188 12.742188 18.121094 12.871094 17.886719L12.882812 17.886719 12.910156 18.195312 13.488281 18.195312C13.480469 18.054688 13.46875 17.804688 13.46875 17.570312zM12.804688 17.414062C12.765625 17.597656 12.617188 17.722656 12.429688 17.722656 12.160156 17.722656 11.984375 17.503906 11.984375 17.148438 11.984375 16.820312 12.136719 16.554688 12.433594 16.554688 12.632812 16.554688 12.773438 16.699219 12.8125 16.875 12.816406 16.910156 12.816406 17.367188 12.804688 17.414062zM15.960938 16.105469L15.308594 16.105469 15.308594 17.347656C15.308594 17.398438 15.277344 17.714844 14.960938 17.714844 14.734375 17.714844 14.636719 17.53125 14.636719 17.230469L14.636719 16.105469 13.984375 16.105469 13.984375 17.332031C13.984375 17.976562 14.296875 18.242188 14.71875 18.242188 15.09375 18.242188 15.289062 18.027344 15.371094 17.898438L15.382812 17.898438 15.414062 18.195312 15.976562 18.195312C15.96875 18.019531 15.960938 17.796875 15.960938 17.523438zM17.585938 16.558594C17.757812 16.558594 17.875 16.589844 17.949219 16.621094L18.054688 16.140625C17.917969 16.089844 17.730469 16.058594 17.558594 16.058594 16.78125 16.058594 16.363281 16.558594 16.363281 17.167969 16.363281 17.828125 16.792969 18.238281 17.46875 18.238281 17.714844 18.238281 17.933594 18.195312 18.050781 18.144531L17.972656 17.664062C17.875 17.703125 17.753906 17.730469 17.601562 17.730469 17.285156 17.730469 17.027344 17.527344 17.027344 17.144531 17.023438 16.800781 17.246094 16.558594 17.585938 16.558594zM19.203125 15.507812L18.566406 15.652344 18.566406 16.105469 18.289062 16.105469 18.289062 16.585938 18.566406 16.585938 18.566406 17.4375C18.566406 17.734375 18.625 17.933594 18.746094 18.058594 18.847656 18.164062 19.023438 18.238281 19.230469 18.238281 19.414062 18.238281 19.570312 18.214844 19.65625 18.179688L19.652344 17.691406C19.605469 17.699219 19.539062 17.707031 19.457031 17.707031 19.261719 17.707031 19.203125 17.59375 19.203125 17.339844L19.203125 16.585938 19.667969 16.585938 19.667969 16.105469 19.203125 16.105469zM19.203125 15.507812"/>
</svg>

<svg xmlns="http://www.w3.org/2000/svg" width="32" height="32" viewBox="0 0 24 24">
    <path d="M15.176 6.414a.628.628 0 1 0 0-1.257.628.628 0 0 0 0 1.257zm0-.851c.101 0 .187.097.187.222s-.086.223-.187.223c-.102 0-.184-.098-.184-.223s.082-.223.184-.223zm0 0M16.938 8.238a.628.628 0 1 0 0-1.257.628.628 0 0 0 0 1.257zm0-.851c.101 0 .183.097.183.222s-.082.227-.183.227c-.102 0-.188-.102-.188-.227s.086-.222.188-.222zm0 0"/>
    <path d="M12 0C5.383 0 0 5.383 0 12s5.383 12 12 12 12-5.383 12-12S18.617 0 12 0zm0 22.98C5.945 22.98 1.02 18.055 1.02 12 1.02 5.945 5.945 1.02 12 1.02c6.055 0 10.98 4.925 10.98 10.98 0 6.055-4.925 10.98-10.98 10.98zm0 0"/>
    <path d="M6.996 8.203h.672V5.082H6.402v.594h.594zm0 0M9.605 8.238c.434 0 .758-.144.973-.437.211-.293.32-.688.32-1.176s-.109-.883-.32-1.176c-.215-.293-.539-.437-.973-.437-.43 0-.753.144-.968.437-.215.293-.32.688-.32 1.176s.105.883.32 1.176c.215.293.539.437.968.437zm-.46-2.367a.49.49 0 0 1 .46-.285c.211 0 .364.094.461.285.098.191.149.441.149.758 0 .312-.05.562-.149.754a.482.482 0 0 1-.46.285.49.49 0 0 1-.461-.285C9.047 7.19 9 6.94 9 6.629c0-.316.047-.566.145-.758zm0 0M12.691 8.238c.43 0 .754-.144.97-.437.214-.293.32-.688.32-1.176s-.106-.883-.32-1.176c-.216-.293-.54-.437-.97-.437-.433 0-.757.144-.972.437-.215.293-.32.688-.32 1.176s.105.883.32 1.176c.215.293.539.437.972.437zm-.46-2.367a.482.482 0 0 1 .46-.285.48.48 0 0 1 .457.285c.098.191.149.441.149.758 0 .312-.05.562-.149.754a.48.48 0 0 1-.457.285.482.482 0 0 1-.46-.285c-.098-.192-.149-.442-.149-.754 0-.316.05-.566.148-.758zm0 0M15.313 8.203h-.77l2.246-3.121h.762zm0 0M6.008 12.316c.086.012.195.02.316.02.551 0 1.024-.137 1.344-.438.242-.23.379-.574.379-.98 0-.402-.18-.746-.442-.953-.277-.223-.687-.332-1.261-.332-.57 0-.973.039-1.262.086v4.074h.926zm0-1.941c.066-.02.195-.04.383-.04.468 0 .73.231.73.61 0 .422-.305.672-.8.672-.137 0-.235-.004-.313-.023zm0 0M10.32 13.113c-.476 0-.746-.363-.746-1.074V9.664h-.937v2.3c0 1.321.613 1.895 1.652 1.895 1.078 0 1.723-.605 1.723-1.879V9.664h-.934v2.375c0 .73-.27 1.074-.758 1.074zm0 0M14.695 12.832c.121.508.22.844.29.961h.953c-.079-.16-.208-.7-.336-1.164-.106-.379-.266-.656-.551-.774v-.015c.355-.13.726-.492.726-1.02 0-.379-.132-.668-.379-.863-.293-.23-.722-.324-1.335-.324-.497 0-.942.039-1.243.086v4.074h.926v-1.625h.281c.38.008.559.148.668.664zm-.949-2.477a2.34 2.34 0 0 1 .422-.03c.43.007.687.198.687.577 0 .36-.277.594-.742.594h-.367zm0 0M19.004 10.43v-.766h-2.55v4.129h2.632v-.766H17.39v-.98h1.52v-.762h-1.52v-.855zm0 0M6.719 15.527c-.192-.156-.477-.234-.88-.234-.398 0-.679.027-.878.062v2.84h.644v-1.03c.06.007.137.015.22.015.386 0 .714-.094.937-.305.172-.164.265-.402.265-.684a.838.838 0 0 0-.308-.664zM5.82 16.68a.802.802 0 0 1-.215-.02v-.848a.948.948 0 0 1 .266-.027c.328 0 .512.16.512.422 0 .297-.215.473-.563.473zm0 0M7.96 16.492h-.015l-.023-.387h-.559c.008.18.02.38.02.688v1.402h.648s.004-1.164.012-1.207c.043-.199.203-.328.445-.328.07 0 .125.008.172.02v-.614c-.047-.007-.074-.007-.137-.007-.199 0-.453.128-.562.433zm0 0M9.965 16.059c-.672 0-1.113.433-1.113 1.105 0 .676.468 1.078 1.078 1.078.558 0 1.101-.351 1.101-1.117 0-.625-.426-1.066-1.066-1.066zm-.016 1.718c-.277 0-.43-.27-.43-.629 0-.308.118-.628.43-.628.293 0 .414.316.414.628 0 .375-.164.63-.414.63zm0 0M13.469 15.164h-.649v1.129h-.008c-.093-.145-.292-.234-.55-.234-.5 0-.938.406-.934 1.109 0 .648.395 1.074.89 1.074.27 0 .524-.12.653-.355h.012l.027.308h.578c-.008-.14-.02-.39-.02-.625zm-.664 2.25a.377.377 0 0 1-.375.309c-.27 0-.446-.22-.446-.575 0-.328.153-.593.45-.593.199 0 .34.144.379.32a6.27 6.27 0 0 1-.008.54zm0 0M15.96 16.105h-.651v1.243c0 .05-.032.367-.348.367-.227 0-.324-.184-.324-.485v-1.125h-.653v1.227c0 .645.313.91.735.91.375 0 .57-.215.652-.344h.012l.031.297h.563a14.76 14.76 0 0 1-.016-.672zm0 0M17.586 16.559c.172 0 .289.03.363.062l.106-.48a1.518 1.518 0 0 0-.496-.082c-.778 0-1.196.5-1.196 1.109 0 .66.43 1.07 1.106 1.07.246 0 .465-.043.582-.093l-.078-.48a.986.986 0 0 1-.371.065c-.317 0-.575-.203-.575-.585-.004-.344.22-.586.559-.586zm0 0M19.203 15.508l-.637.144v.453h-.277v.48h.277v.852c0 .297.059.497.18.622.102.105.277.18.484.18.184 0 .34-.024.426-.06l-.004-.488a1.19 1.19 0 0 1-.195.016c-.195 0-.254-.113-.254-.367v-.754h.465v-.48h-.465zm0 0"/>
</svg>
